packages/icons/svg/Fill/arrow-ios-down.svg

<svg fill="none" height="24" viewBox="0 0 24 24" width="24" xmlns="http://www.w3.org/2000/svg"><path clip-rule="evenodd" d="m12 15.9997c-.228 0-.455-.077-.64-.232l-5.99998-5c-.424-.353-.482-.98396-.128-1.40796.353-.424.983-.481 1.408-.128l5.37098 4.47596 5.362-4.31496c.43-.346 1.06-.278 1.406.152s.278 1.05896-.152 1.40596l-6 4.828c-.183.147-.405.221-.627.221" fill="#6b7280" fill-rule="evenodd"/></svg>

<svg width="24" height="24" viewBox="0 0 24 24" fill="none" xmlns="http://www.w3.org/2000/svg">
<g id="Icon/Fill/arrow-ios-down">
<path id="Mask" fill-rule="evenodd" clip-rule="evenodd" d="M11.9999 16C11.7719 16 11.5449 15.923 11.3599 15.768L5.35991 10.768C4.93591 10.415 4.87791 9.78398 5.23191 9.35998C5.58491 8.93598 6.21491 8.87898 6.63991 9.23198L12.0109 13.708L17.3729 9.39298C17.8029 9.04698 18.4329 9.11498 18.7789 9.54498C19.1249 9.97498 19.0569 10.604 18.6269 10.951L12.6269 15.779C12.4439 15.926 12.2219 16 11.9999 16Z" fill="#000000"/>
</g>
</svg>
